X:0
T:Wedding on the Hill
C:Copyright 2008 Bonnie Epstein
K:G
L:1/8
M:3/4
Bc|:d3B Bc | d3B Bc | d2g3e | dcB4 | 
c2d2e2 | d2c2B2 | A4 AA | A2B2c2 | 
d3B Bc | d3 B Bc | d2g3e | dcB4 | 
cd ed cB | A4GF | (G6 |1 G4)Bc :|2G4) !fine! GF|
E4EE | E2F2G2 | FE(D4 | D4)GF | 
E4EE | E2F2G2 | F6 | G4F2 | 
E4EE | E2F2G2 | FE(D4 | D4)B,2 | 
E4E2 | F4F2 | G4G2 | A4Bc !D.C.!:| 